X:111
T:Valzer
C:Amedeo de Laurentiis
C:Balli popolari in Abruzzo I/7
C:ABAABCA
M:3/4
L:1/8
K:G
d (3ded|d2 zd (3ded|d2zd (3ded|dc c2z2|z3 c (3cdc|\
c2zc (3cdc|c2zA (3ABc|ed d2z2|z3d (3ded|
d2 zd (3ded|d2zd (3ded|dc c2z2|z3B (3Bcd|\
d2zd de|fe dc (3cBA|G3g g2|g2z:|
|:zg2|fe dc (3cBc|ed GB (3Bcd|dc FA (3ABc|ed Gd (3deg|\
fe dc (3cBc|ed Gd (3deg|fe dc (3cBA|
GB Bc (3deg|fe dc (3cBc|ed GB (3Bcd|dc FA (3ABc|\
ed Gd (3deg|fe dc (3cBc|ed Gd (3deg|
fe dc (3cBA|G3gg2|g2z:|\
B|GB (3Bcd (3deg|fe f4|fe dc (3cBA|G6||
